X: 18018
T: Huish The Cat
R: jig
M: 6/8
K: Dmixolydian
|:~D3 D2A|AGE c3|~D3 D2A|AGE ~E3|
~D3 D2A|AGE c3|ABc d2A|AGE ~E2D:|
|:dcA AGE|AGE c3|dcA AGE|AGE ~E2D|
dcA AGE|AGE c3|ABc d2A|AGE ~E2D:|

